components/icon/combined/Asterisk300.svg

<svg xmlns="http://www.w3.org/2000/svg" id="Asterisk300"><path d="M10.024 10.155c.087.089.146.206 0 .323l-1.819 1.173c-.146.089-.2.03-.263-.117L5.685 7.605l-2.962 3.254c-.03.057-.117.116-.2 0L1.116 9.392c-.147-.087-.117-.176 0-.263l3.339-2.785L.642 4.908c-.059 0-.146-.117-.089-.264l1-1.993a.156.156 0 01.192-.1.163.163 0 01.073.048l3.337 2.163.206-4.28a.155.155 0 01.128-.176.23.23 0 01.047 0l2.433.323c.147 0 .176.059.147.206l-1.144 4.19 3.87-1.173c.087-.06.176-.06.234.117l.381 2.169c.028.147 0 .206-.117.206l-4.046.323z" class="spectrum-UIIcon--large"/><path d="M8.266 8.324c.07.071.116.164 0 .258l-1.454.938c-.116.071-.163.024-.21-.094l-1.8-3.141-2.367 2.6c-.024.045-.094.092-.163 0l-1.13-1.167c-.118-.07-.094-.141 0-.21l2.671-2.227L.766 4.13c-.047 0-.116-.094-.071-.211l.8-1.593a.124.124 0 01.153-.084.13.13 0 01.058.038l2.669 1.738.164-3.422a.124.124 0 01.1-.14.186.186 0 01.038 0l1.945.258c.118 0 .14.047.118.164l-.915 3.349 3.094-.938c.07-.047.14-.047.187.094l.3 1.734c.023.118 0 .164-.094.164l-3.234.258z" class="spectrum-UIIcon--medium"/></svg>

<svg xmlns="http://www.w3.org/2000/svg" id="Asterisk300"><path d="M10.024,10.155c.087.089.146.206,0,.323L8.205,11.651c-.146.089-.2.03-.263-.117L5.685,7.605,2.723,10.859c-.03.057-.117.116-.2,0L1.116,9.392c-.147-.087-.117-.176,0-.263L4.455,6.344.642,4.908c-.059,0-.146-.117-.089-.264l1-1.993a.1559.1559,0,0,1,.192-.1.1629.1629,0,0,1,.073.0479L5.155,4.762,5.361.482A.1551.1551,0,0,1,5.489.3059a.2307.2307,0,0,1,.047,0l2.433.323c.147,0,.176.0591.147.206l-1.144,4.19,3.87-1.1729c.087-.0591.176-.0591.234.117l.381,2.169c.028.147,0,.206-.117.206l-4.046.323Z" class="spectrum-UIIcon--large"/><path d="M8.266,8.324c.07.071.116.164,0,.258L6.812,9.52c-.116.071-.163.024-.21-.094l-1.8-3.141-2.367,2.6c-.024.045-.094.0919-.163,0L1.142,7.718c-.118-.07-.094-.141,0-.21L3.813,5.281.766,4.13c-.047,0-.116-.094-.071-.211l.8-1.593a.124.124,0,0,1,.153-.084.13.13,0,0,1,.058.038L4.375,4.018,4.539.596a.124.124,0,0,1,.1-.14.1856.1856,0,0,1,.038,0L6.622.714c.118,0,.14.047.118.164L5.825,4.227l3.094-.938c.07-.047.14-.047.187.094l.3,1.734c.023.118,0,.164-.094.164l-3.234.258Z" class="spectrum-UIIcon--medium"/></svg>
